src/main/resources/icons/OpenapiIcons/icons/repositoryLibraryLogo.svg

<svg xmlns="http://www.w3.org/2000/svg" width="16" height="16" viewBox="0 0 16 16">
  <path fill="#40B6E0" fill-opacity=".7" fill-rule="evenodd" d="M2.39466362,3.02668161 L0.4,12.992599 L3.138395,12.992599 L4.38312083,6.31930232 C4.38312083,6.31930232 5.46188272,5.37819638 6.29169956,5.46375146 C7.1215164,5.54930655 7.1215164,6.41225837 7.1215164,6.41225837 L5.95977282,13 L8.69942541,13 L10.0258753,6.31930232 C10.0258753,6.31930232 10.9386739,5.37819638 11.8514724,5.46375146 C12.7642709,5.54930655 12.5983075,6.49781345 12.5983075,6.49781345 L11.3535823,12.992599 L14.1749595,12.992599 L15.5856482,5.38559733 C15.7516115,4.18042517 15.0402711,3.13749616 14.0919779,3.02668161 C13.1436846,2.91586707 12.1833991,3.15376414 11.3535823,3.67449561 C10.5237654,4.19522709 10.0258753,4.87226682 10.0258753,4.87226682 C10.0258753,4.87226682 9.59761606,3.13749616 8.28325998,3.02668161 C6.96890389,2.91586707 6.37468124,3.23931922 5.79380946,3.58153957 C5.21293767,3.92375991 4.88101093,4.3589363 4.88101093,4.3589363 L5.10962257,3.02668161 L2.39466362,3.02668161 Z"/>
</svg>

<svg xmlns="http://www.w3.org/2000/svg" width="16" height="16" viewBox="0 0 16 16"><rect id="frame" width="16" height="16" fill="none"/><path fill="#40B6E0" fill-opacity=".7" fill-rule="evenodd" d="M2.395 3.027L.4 12.993h2.738l1.245-6.674s1.079-.94 1.909-.855c.83.085.83.948.83.948L5.96 13H8.7l1.326-6.68s.913-.942 1.825-.856c.913.085.747 1.034.747 1.034l-1.244 6.495h2.821l1.41-7.607c.167-1.206-.545-2.249-1.493-2.36-.948-.11-1.909.128-2.738.648-.83.521-1.328 1.198-1.328 1.198s-.428-1.735-1.743-1.845c-1.314-.111-1.908.212-2.49.555-.58.342-.912.777-.912.777l.229-1.332H2.395z"/></svg>
